x-pack/platform/plugins/shared/content_connectors/public/assets/icons/google_cloud_storage.svg

<svg width="64" height="64" viewBox="0 0 64 64" fill="none" xmlns="http://www.w3.org/2000/svg">
<path d="M45.1514 59.971L33.644 59.9691C34.6977 59.9691 35.618 59.4063 36.1103 58.5701L51.7293 31.9856L41.8651 15.1944L53.3708 15.195C54.354 15.1958 55.31 15.6977 55.8368 16.5946L63.237 29.1878C64.2184 30.8621 64.2899 32.9911 63.2362 34.7848L50.0839 57.1731C49.0992 58.8457 47.259 59.971 45.1514 59.971ZM43.7277 54.3743C43.7277 55.1469 44.3652 55.7735 45.1514 55.7735C45.9377 55.7735 46.5751 55.1469 46.5751 54.3743C46.5751 53.6015 45.9377 52.9751 45.1514 52.9751C44.3652 52.9751 43.7277 53.6015 43.7277 54.3743ZM57.5928 33.198C58.2735 33.5842 59.1442 33.355 59.5373 32.6859C59.9303 32.0169 59.697 31.1614 59.0163 30.775C58.3353 30.3888 57.4649 30.6178 57.0717 31.2871C56.6787 31.9561 56.912 32.8118 57.5928 33.198Z" fill="#DB4437"/>
<path d="M50.0849 6.79945L55.8368 16.5946C55.31 15.6975 54.3542 15.1958 53.371 15.195L22.1355 15.1935L12.2713 31.9846L6.51896 22.1917C6.02807 21.3545 5.99233 20.2899 6.51917 19.3928L13.9161 6.79803C14.901 5.1253 16.7412 4 18.8488 4L45.153 4.0002C47.1193 4.00203 49.031 5.0055 50.0849 6.79945ZM20.2723 9.59687C20.2723 8.82406 19.6349 8.19765 18.8486 8.19765C18.0624 8.19765 17.4249 8.82406 17.4249 9.59687C17.4249 10.3697 18.0624 10.9961 18.8486 10.9961C19.6349 10.9961 20.2723 10.3697 20.2723 9.59687ZM45.865 10.8095C46.5457 10.4231 46.7788 9.56763 46.3856 8.89838C45.9927 8.22933 45.122 8.00009 44.4413 8.38649C43.7603 8.77269 43.5272 9.62835 43.9202 10.2974C44.3134 10.9664 45.1838 11.1957 45.865 10.8095Z" fill="#4285F4"/>
<path d="M0.763973 29.1861L6.51919 19.393C5.99213 20.2899 6.02788 21.3545 6.51877 22.1917L22.1355 48.7774H41.8637L36.1105 58.5699C35.618 59.4063 34.698 59.9691 33.6441 59.9691L18.8469 59.9708C16.8809 59.9691 14.9692 58.9655 13.9153 57.1715L0.76294 34.7832C-0.218438 33.1089 -0.289924 30.9801 0.763973 29.1861ZM6.40741 30.7732C5.72644 30.3868 4.85601 30.616 4.46284 31.2851C4.06987 31.9543 4.30313 32.8098 4.9839 33.1962C5.66466 33.5826 6.5353 33.3533 6.92827 32.6841C7.32144 32.015 7.08818 31.1594 6.40741 30.7732ZM18.1354 53.1619C17.4546 53.5481 17.2212 54.4037 17.6143 55.0728C18.0073 55.742 18.8779 55.9713 19.5589 55.5849C20.2397 55.1987 20.4729 54.343 20.0798 53.674C19.6868 53.0049 18.8162 52.7757 18.1354 53.1619Z" fill="#F4B400"/>
<path opacity="0.1" fill-rule="evenodd" clip-rule="evenodd" d="M36.1114 58.5702L41.8647 48.7779H35.9229L33.6449 59.9695C34.6988 59.9695 35.619 59.4066 36.1114 58.5702Z" fill="black"/>
<path opacity="0.1" fill-rule="evenodd" clip-rule="evenodd" d="M53.3715 15.1955L41.8659 15.1951L44.8367 20.2521L55.8376 16.5952C55.3105 15.6983 54.3548 15.1964 53.3715 15.1955Z" fill="black"/>
<g opacity="0.1">
<mask id="mask0_857_78975" style="mask-type:luminance" maskUnits="userSpaceOnUse" x="6" y="19" width="10" height="13">
<path d="M15.2436 19.3942H6.13879V31.9856H15.2436V19.3942Z" fill="black"/>
</mask>
<g mask="url(#mask0_857_78975)">
<path fill-rule="evenodd" clip-rule="evenodd" d="M6.51989 22.1923L12.272 31.9852L15.243 26.9282L6.51989 19.3936C5.99325 20.2905 6.029 21.3551 6.51989 22.1923Z" fill="black"/>
</g>
</g>
<path d="M22.1355 48.7776L12.2707 31.9856L22.1355 15.1935H41.8647L51.7293 31.9856L41.8647 48.7776H22.1355ZM40.5422 31.9856C40.5422 27.3489 36.7177 23.5905 32.0001 23.5905C27.2824 23.5905 23.458 27.3489 23.458 31.9856C23.458 36.622 27.2824 40.3807 32.0001 40.3807C36.7177 40.3807 40.5422 36.622 40.5422 31.9856Z" fill="#CCCCCC"/>
</svg>

<svg xmlns="http://www.w3.org/2000/svg" width="64" height="64" fill="none"><path fill="#DB4437" d="m45.151 59.971-11.507-.002a2.86 2.86 0 0 0 2.466-1.399l15.62-26.584-9.865-16.792 11.506.001c.983 0 1.939.503 2.466 1.4l7.4 12.593a5.51 5.51 0 0 1 0 5.597L50.083 57.173a5.71 5.71 0 0 1-4.933 2.798m-1.423-5.597c0 .773.637 1.4 1.423 1.4.787 0 1.424-.627 1.424-1.4s-.637-1.399-1.424-1.399-1.423.627-1.423 1.4m13.865-21.176c.68.386 1.551.157 1.944-.512a1.386 1.386 0 0 0-.52-1.911 1.437 1.437 0 0 0-1.945.512 1.386 1.386 0 0 0 .52 1.911"/><path fill="#4285F4" d="m50.085 6.8 5.752 9.795a2.86 2.86 0 0 0-2.466-1.4l-31.235-.002-9.865 16.792-5.752-9.793a2.76 2.76 0 0 1 0-2.8l7.397-12.594A5.71 5.71 0 0 1 18.85 4h26.304c1.966.002 3.878 1.005 4.932 2.8M20.272 9.596c0-.773-.637-1.4-1.423-1.4-.787 0-1.424.627-1.424 1.4s.637 1.4 1.424 1.4 1.423-.627 1.423-1.4m25.593 1.213c.68-.387.914-1.242.52-1.912a1.437 1.437 0 0 0-1.944-.512 1.386 1.386 0 0 0-.52 1.911 1.44 1.44 0 0 0 1.944.512"/><path fill="#F4B400" d="m.764 29.186 5.755-9.793a2.76 2.76 0 0 0 0 2.799l15.617 26.585h19.728L36.11 58.57a2.86 2.86 0 0 1-2.467 1.4H18.847c-1.966 0-3.878-1.005-4.932-2.798L.763 34.783a5.51 5.51 0 0 1 .001-5.597m5.643 1.587a1.437 1.437 0 0 0-1.944.512c-.393.67-.16 1.525.52 1.911.682.387 1.552.157 1.945-.512s.16-1.525-.52-1.91m11.728 22.389a1.386 1.386 0 0 0-.52 1.91c.392.67 1.263.9 1.944.513.68-.386.914-1.242.52-1.911a1.437 1.437 0 0 0-1.944-.512"/><path fill="#000" fill-rule="evenodd" d="m36.111 58.57 5.754-9.792h-5.942l-2.278 11.191a2.86 2.86 0 0 0 2.466-1.399M53.372 15.196H41.866l2.97 5.056 11.002-3.657a2.86 2.86 0 0 0-2.467-1.4" clip-rule="evenodd" opacity=".1"/><g opacity=".1"><mask id="a" width="10" height="13" x="6" y="19" maskUnits="userSpaceOnUse" style="mask-type:luminance"><path fill="#000" d="M15.244 19.394H6.139v12.592h9.105z"/></mask><g mask="url(#a)"><path fill="#000" fill-rule="evenodd" d="m6.52 22.192 5.752 9.793 2.971-5.057-8.723-7.534a2.76 2.76 0 0 0 0 2.798" clip-rule="evenodd"/></g></g><path fill="#CCC" d="M22.136 48.778 12.27 31.986l9.865-16.792h19.729l9.864 16.792-9.864 16.792zm18.406-16.792c0-4.637-3.824-8.396-8.542-8.396s-8.542 3.759-8.542 8.396c0 4.636 3.824 8.395 8.542 8.395s8.542-3.759 8.542-8.395"/></svg>
